X:19
T: PRIPE NINNE SAUSE
N: K0059
O: Europa, Mitteleuropa, Deutschland, Oberlausitz
R: Kinder -, Wiegen - Lied
M: 2/4
L: 1/16
K: F
 | A2A2G2G2 | F4C2
C2 | A2A2G2G2 | F4C2
C2 | A2A2A2c2 | c2B2B2
A2 | G2G2G2B2 | B2A2A2
F2 | A2A2G2GG | F4C4 |
A2A2G2G2 | F4C2z2

@@@ Tune index: 7356
